!!!OTL: Das M&auml;dchen und der Lorbeerbaum (50), S. 158
!!!id: T0184
**kern
*clefG2
*k[f#]
*G:
{8d
=1
8g
8b
4b
8a
8g
=2
8f#
8a
4d}
8r
=3
{8d
=4
8g
16b
16dd
4dd
8b
8b
=5
8b
8a}
4.r
=6
{16a
16b
=7
8cc
8ee
4.ee
16dd
16cc
=8
16b
16cc
16dd
16ee
4dd}
8r
=9
{8b
=10
8a
8dd
4.dd
8cc
=11
8cc
8b}
4.r
==
*-
!!!minrhy: 16
!!!meters: 3/4 ]  ZZ[4
!!!cut: Das M&auml;dchen und der Lorbeerbaum (50), S. 158
!!!reg: Luxemburg
!!!trd: Singendes Volk, Esch-Alzette 1937 posth.
!!!rhy1: X_  X_X_X__X_X_  X_X_X__0_
!!!rhy2: X_  X_XXX__X_X_  X_X_0__.
!!!key: T0184  16  G 3/4 ]  ZZ[4
!!!mod: HEPTATONIK IONISCH]  AMBITUS[9
!!!kad: -5253
!!!akz: 1-7_13_43_24_
!!!fot: 'a__b__c__d__
!!!for: 'a__b__c__d__
!!!fok: '^__^a_~a_^__
!! PHRAS[AUFTAKTIG]
!!!fkt: Liebeslieder
!!!bem: Grevenmacher, fff Wilhelm Weins aus Esch-Alz., 1915
!! THILL, Mathias:
!! PR[33] 2K[0] 2G[13] 3K[8] 3G[0] 4A[4] 4Ü[0] 5A[0] 6K[0] 6G[0]
!! 7K[0] 7G[0] 8A[0] MEHR[0] SI[25] ABS[24] SR[13] SP[13]
!! ST[8] 2k[13] 2g[29] 3k[0] 3g[0] 4d[0] 4ü[0] 5d[0] 6k[0] 6g[0]
!! 7k[0] 7g[0] 8d[0] mehr[0] si[42] dm[-17] sr[42] sp[0]
!! 1F[81] 2F[19] 3F[0] 4F[0] LF[0] 2P[0] 3P[0] 4P[0] TRI[0] DF[2] AB[27]
!! TF[0] U3K[0] U3[0] U4[0] U4Ü[0] U5[0] U6K[0] U6[0] U7K[0] U7[0]
!! N1[0] N2K[0] N2[0] N3K[0] N3[8] N4[8] N4Ü[0] N5[48] N6K[0] N6[24]
!!!n7k: 0] N7[8] O1[4] O2K[0] O2[0] O3K[0] O3[0] HÖ[0
!!!RNB: symbol: &auml;      = a umlaut  (UTF-8: Å„)
